docs/graphics/year-in-review/asteriskFilled.svg

<svg viewBox="0 0 174 174" fill="none" xmlns="http://www.w3.org/2000/svg">
<path d="M99.8481 0H74.1519V57.4503L34.3218 17.6202L16.1519 35.7901L55.2478 74.8861H0V100.582H56.2263L16.1517 140.657L34.3217 158.827L74.1519 118.997V174H99.8481V119.486L139.188 158.827L157.358 140.657L117.284 100.582H174V74.8861H118.262L157.358 35.7902L139.188 17.6202L99.8481 56.9604V0Z" fill="#111111"/>
</svg>

<svg xmlns="http://www.w3.org/2000/svg" fill="none" viewBox="0 0 174 174"><path fill="#111" d="M99.848 0H74.152v57.45l-39.83-39.83-18.17 18.17 39.096 39.096H0v25.696h56.226l-40.074 40.075 18.17 18.17 39.83-39.83V174h25.696v-54.514l39.34 39.341 18.17-18.17-40.074-40.075H174V74.886h-55.738l39.096-39.096-18.17-18.17-39.34 39.34V0Z"/></svg>
